X:115
T:Rambling Pitchfork, The
M:6/8
L:1/8
Q:120
S:THSP
R:jig
K:D
"D"~F3 AFF|dFF AFD|"G"~G3 ABc|"A"ded cBA|
"D"~F3 AFF|dFF AFD|"G"GFG BAG|1 "A"AFD "D"D2E:|2 "A"AFD "D"D2A||:
"D"d2e fed|"A"ecA AFA|"D"dcd efg|"G"(3fga f "A"gfe|
"D"dcd fed|"A"ecA AGF|"G"~G3 BAG|1 "A"AFD "D"D2A:|2 "A"AFD "D"D2E|]
